X:1
T:Mother, I will have a husband - Vautor
T:James Gibb editions
T:#
%%score { 1 | 2 } 3 4 5
L:1/8
Q:1/4=120
M:2/2
K:G
V:1 treble nm="Soprano 1" snm="S"
V:2 treble 
V:3 treble nm="Alto" snm="A"
V:4 treble-8 nm="Tenor" snm="T"
V:5 bass nm="Bass" snm="B"
V:1
"^Mother, I will have a husband"!f! ddd G B2 c2 | A4 GGdd | e2 d2 c2 B2 | %3
w: Mo- ther, I will have a|hus- band, And I will|have him out of|
"^Thomas Vautor\n(1579-1620)" A8 |[M:2/2] FGAB c2 d2 | e3 d c3 B | A2 G2 F2 B2 | A2 G2 G2 F2 | %8
w: hand.|Mo- ther, I will sure have|one, have one, In|spite of her, of|her that will have|
 G6!mp! BB | B2 AG A2 B2 | c2 A2 B2!f! dd | d2 de d2 d2 | e2 d2 d2!mp! d2 | cccc c2 B2 | %14
w: none. John a|Dun should have had me|long ere this, John a|Dun should have had me|long ere this, He|said I had good lips to|
 AGFG A3 d | cBAB c2 d2 | e6!f! dc | B2 c2 A2 A2 | B2 G2 G3 G | G2 A2 G2 G2 | F3!mf! d c2 A2 | %21
w: kiss, to kiss, to kiss, to|kiss, to kiss, to kiss, to|kiss. Mo- ther,|I will sure have|one, In spite of|her that will have|none. For I have|
 c2 (BA) ^G2 (EF) | ^G2 e2 BBBA | ^G2 E2 GGGA | B2 c2 B2 B2 | ^c2!f! A2 AGFG | A2 B2 A2 A2 | %27
w: heard 'tis * trim, 'tis *|trim, for I have heard 'tis|trim, for I have heard 'tis|trim when folks do|love, By good Sir John I|swear now I will|
 B6 B2 | A2 B2 c2 c2 | cBAG F2 z2 | z2 d2 c2 A2 | B8 | z2!mp! A2 AAAB | c2 c2 G2 G2 | %34
w: prove, now|I will prove, by|good Sir John I swear|now I will|prove.|For Mo- ther, I will|sure have one, have|
"^cresc." B2 B2 F2!ff! d2 | e3 e e2 d2 | d4 d4 | d8 | z8 || z4 (3z2 z2!f! d(3:2:1c | %40
w: one, have one, In|spite of her that|will have|none.||To the|
 (3:2:2B4 G2 (3G2 B2 A2 | (3:2:2G4 z2 (3:2:1z2 (3z2 dc | (3:2:2B4 G2 (3G2 B2 A2 | %43
w: town there- fore will I|gad, to the|town there- fore will I|
 (3:2:2G4!mp! d2 (3:2:1e3 (3:2:2d c2 | (3:2:2B4 A2 (3:2:2A2 ^G4 | %45
w: gad, To get me a|hus- band good or|
 (3:2:2A4!ff! c2 (3:2:1B3 (3:2:2c d2 | (3:2:2d4 d2 (3:2:2c2 A4 || B4 z4 |!f! GABc d2 e2 | d4 BBAB | %50
w: bad, to get me a|hus- band good or|bad.|Mo- ther, I will have a|hus- band, And I will|
 c2 B2 A2 G2 | F8 | DEFG A2 B2 | c3 d e3 d |[M:2/2] c2 B2 A2 G2 | F2 (Bc) d3[Q:1/4=119] c | %56
w: have him out of|hand.|Mo- ther, I will sure have|one, have one, In|spite of her that|will, in * spite of|
[Q:1/4=117] B2[Q:1/4=114] A3[Q:1/4=112] G[Q:1/4=111] G2- | %57
w: her that * will|
[Q:1/4=109] G2[Q:1/4=107] (F[Q:1/4=106]E[Q:1/4=103] F4) |[Q:1/4=102] !fermata!G8 |] %59
w: * have * *|none.|
V:2
!f! GABc d2 e2 | d4 BBAB | c2 B2 A2 G2 | F8 |[M:2/2] DEFG A2 B2 | c3 d e3 d | c2 B2 A2 d2 | %7
w: Mo- ther, I will have a|hus- band, And I will|have him out of|hand.|Mo- ther, I will sure have|one, have one, In|spite of her, of|
 c2 B2 A2 A2 | B6!mp! dd | d2 de d2 d2 | e2 d2 d2!f! BB | B2 AG A2 B2 | c2 A2 B2!mp! A2 | %13
w: her that will have|none. John a|Dun should have had me|long ere this, John a|Dun should have had me|long ere this, He|
 AAAA A2 G2 | FEDE F2 A2 | AG=FG A2 B2 | c6!f! BA | G2 G2 G2 F2 | G2 B2 B2 B2 | c2 A2 B2 c2 | %20
w: said I had good lips to|kiss, to kiss, to kiss, to|kiss, to kiss, to kiss, to|kiss. Mo- ther,|I will sure have|one, In spite of|her that will have|
 d4 z4 | z2!mf! e2 B2 c2 | B2 (BA) ^G2 E2 | B2 e2 BBBc | B2 A2 A2 ^G2 | A4 z4 | z4 z2!f! d2 | %27
w: none.|For I have|heard 'tis * trim, 'tis|trim, for I have heard 'tis|trim when folks do|love,|By|
 dcBc d2 e2 | d2 d2 c2 e2 | edcB A2 z2 | z2 B2 e2 d2 | d8 | z2!mp! d2 cccd | e2 e2 B2 B2 | %34
w: good Sir John I swear now|I will prove, by|good Sir John I swear|now I will|prove.|For Mo- ther, I will|sure have one, have|
"^cresc." d2 d2 A2!ff! B2 | c3 c c2 B2 | A4 A4 | B8 | z4 z2!f! dc || (3:2:2B4 G2 (3G2 B2 A2 | %40
w: one, have one, In|spite of her that|will have|none.|To the|town there- fore will I|
 (3:2:2G4 z2 (3z2 z2 d(3:2:1c | (3:2:2B4 G2 (3G2 B2 A2 | (3:2:2G4 d(3:2:1c z4/3 (3:2:2G2 A2 | %43
w: gad, to the|town there- fore will I|gad, will I will I|
 (3:2:2B4!mp! B2 (3:2:1c3 (3:2:2d e2 | (3:2:2e4 e2 (3:2:2d2 B4 | %45
w: gad, To get me a|hus- band good or|
 (3:2:2^c4!ff! e2 (3:2:1d3 (3:2:2=c B2 | (3:2:2A4 G2 (3:2:2G4 F2 || G4 z4 |!f! dddG B2 c2 | %49
w: bad, to get me a|hus- band good or|bad.|Mo- ther, I will have a|
 A4 GGdd | e2 d2 c2 B2 | A8 | FGAB c2 d2 | e3 d c2 B2 |[M:2/2] A2 G2 F2 (Bc) | d3 c B2 (A2- | %56
w: hus- band, And I will|have him out of|hand.|Mo- ther, I will sure have|one, have one, In|spite of her, in *|spite of her that|
 AGFE) F2 G2 | A4 A4 | !fermata!B8 |] %59
w: * * * * will, that|will have|none.|
V:3
!f! GGGG G2 G2 | F4 GGAG | G3 =F F2 D2 | D8 |[M:2/2] DDDD C2 G2 | G4 E4 | =F2 D2 D2 D2 | %7
w: Mo- ther, I will have a|hus- band, And I will|have him out of|hand.|Mo- ther, I will sure have|one. In|spite of her, of|
 E2 D2 D2 D2 | D4 z2!mp! GG | G2 FE F2 G2 | C2 D2 G2!f! GG | G2 DG, D3 G | G2 F2 G2!mp! =F2 | %13
w: her that will have|none. John a|Dun should have had me|long ere this, John a|Dun should have had me|long ere this, He|
 =FFFF F2 D2 | D8 | z2 A2 AG=FG | E2!f! CD E2 B,2 | E4 D4 | D2 D2 D2 D2 | E2 A,2 E2 E2 | %20
w: said I had good lips to|kiss,|to kiss, to kiss, to|kiss. Mo- ther, I will|sure have|one, In spite of|her that will have|
 A,3!mf! A, A,B,CD | E4 z2 E2 | B,B,B,C B,4 | z2 E2 EEEE | E2 E2 E2 E2 | E2!f! E2 FEDE | %26
w: none. For I have heard 'tis|trim, for|I have heard 'tis trim,|for I have heard 'tis|trim when folks do|love, By good Sir John I|
 F2 G2 G2 F2 | G2 D2 DCB,C | D2 D2 E4 | z2 A2 AGFE | D2 G2 G2 F2 | G6!mp! G2 | =FFFG A2 F2 | %33
w: swear now I will|prove, by good Sir John now|I will prove,|by good Sir John I|swear now I will|prove. For|Mo- ther, I will sure have|
 E2 G2 G2 E2 |"^cresc." D2 D2 D3!ff! G | G3 G (EF) G2- | G2 (FE F2) F2 | G8 | z4 z2!f! GE || %39
w: one, have one, have|one, have one, In|spite of her * that|* will * * have|none.|To the|
 (3:2:2G4 D2 (3D2 G2 F2 | (3:2:1G3 (3:2:2D D2 (3D2 G2 F2 | (3G2 B,2 B,2 (3B,2 D2 D2 | %42
w: town there- fore will I|gad, will I gad, will I|gad, will I gad, will I|
 (3:2:2D4 z2 z4 | (3z2 z2!mp! G2 (3:2:1G3 (3:2:2D A2 | (3:2:2^G4 E2 (3:2:2F2 E4 | %45
w: gad,|To get me a|hus- band good or|
 (3:2:2E4!ff! (A(3:2:1G) z2 (3A (DE) | (3:2:1F3 (3:2:2(E D2) (3:2:2E2 D4 || D4 z4 |!f! DDGG G2 G2 | %49
w: bad, to * me a *|hus- band * good or|bad.|Mo- ther, I will have a|
 F4 GGAG | G2 =F2 F2 D2 | D8 | DDDD C2 G2 | G3 =F E2 E2 |[M:2/2] =F2 D2 D4- | D2 (DE) F4 | %56
w: hus- band, And I will|have him out of|hand.|Mo- ther, I will sure have|one, have one, In|spite of her,|* in * spite|
 z2 D2 D2 D2 | D4 D4 | !fermata!D8 |] %59
w: of her that|will have|none.|
V:4
!f! BBBB G2 G2 | d4 dddG | G2 d2 A2 (BG) | A8 |[M:2/2][K:treble-8] AAAA A2 d2 | c6 G2 | %6
w: Mo- ther, I will have a|hus- band, And I will|have him out of *|hand.|Mo- ther, I will sure have|one, In|
 A2 (Bc) d2 (GF) | (EF) G2 A2 A2 | G8 | z8 | z4 z2!f! dd | d2 AB A2 d2 | (cG) d2 d2!mp! A2 | %13
w: spite of * her, of *|her * that will have|none.||John a|Dun should have had me|long * ere this, He|
 AAAA A2 (Bc) | d4 A4 | A6 d2 | G4!f! G2 d2 | G2 E2 A2 A2 | G8 | z8 | z8 | z2!mf! E2 EF^GA | %22
w: said I had good lips to *|kiss, to|kiss, to|kiss. Mo- ther,|I will sure have|one.|||For I have heard 'tis|
 B2 E2 e4- | e2 B2 BBBA | ^G2 A2 B2 B2 | A2!f! A2 A2 A2 | d2 d2 e2 d2 | d4 G4 | A2 G2 G4- | %29
w: trim, 'tis trim,|* for I have heard 'tis|trim when folks do|love, By good Sir|John now I will|prove, now|I will prove,|
 G2 E2 A2 dc | BA G2 A2 A2 | G6!mp! B2 | dddd A2 A2 | G2 G2 G2 B2 |"^cresc." B2 B2 A2!ff! d2 | %35
w: * I, by good Sir|John I swear I will|prove. For|Mo- ther, I will sure have|one, have one, have|one, have one, In|
 c3 c c2 d2 | d4 A4 | G8 | z4 z2!f! Bc || (3:2:2d4 B2 (3:2:1B3 (3:2:2d d2 | (3d2 G2 G2 (3G2 G2 D2 | %41
w: spite of her that|will have|none.|To the|town there- fore will I|gad, will I gad, will I|
 (3:2:2G4 B(3:2:1B z4/3 (3:2:2d2 d2 | (3:2:1d3 (3(cB)A (3G2 G2 F2 | %43
w: gad, will I will I|gad, will * I gad, will I|
 (3:2:2G4!mp! B2 (3:2:1e3 (3B (cd) | (3e2 (B2 c2) (3:2:2B4 B2 | (3:2:2A4!ff! A2 (3:2:1d3 (3A (Bc) | %46
w: gad, To get me a *|hus- band * good or|bad, to get me a *|
 (3d2 (A2 B2) (3:2:2A4 A2 || G4 z4 |!f! BBBB G2 G2 | d4 dddG | G2 d2 A2 (BG) | A8 | AAAA A2 d2 | %53
w: hus- band * good or|bad.|Mo- ther, I will have a|hus- band, And I will|have him out of *|hand.|Mo- ther, I will sure have|
 c6 G2 |[M:2/2][K:treble-8] A2 (Bc) d2 B2 | A2 G2 F2 A2 | d3 c B2 B2 | A4 A4 | !fermata!G8 |] %59
w: one, have|one, In * spite of|her that will, in|spite of her that|will have|none.|
V:5
!f! G,G,G,G, G,2 C,2 | D,4 G,,G,F,G, | C,2 D,2 =F,2 G,2 | D,8 |[M:2/2] D,D,D,D, A,,2 G,,2 | %5
w: Mo- ther, I will have a|hus- band, And I will|have him out of|hand.|Mo- ther, I will sure have|
 C,4 C,4 | =F,2 G,2 D,2 B,,2 | C,2 G,,2 D,2 D,2 | G,,8 | z8 | z4 z2!f! G,G, | G,2 F,E, F,2 G,2 | %12
w: one, In|spite of her, of|her that will have|none.||John a|Dun should have had me|
 C,2 D,2 G,2!mp! D,2 | =F,F,F,F, F,2 G,2 | D,6 D,2 | =F,6 D,2 | C,4!f! C,2 D,2 | E,2 C,2 D,2 D,2 | %18
w: long ere this, He|said I had good lips to|kiss, to|kiss. to|kiss. Mo- ther,|I will sure have|
 G,,3 G, G,2 G,2 | C,2 =F,2 E,2 E,2 | D,4!mf! =F,4 | E,4 E,4 | E,4 E,4 | E,4 E,4 | E,4 E,4 | %25
w: one, In spite of|her that will have|none. For|I have|heard 'tis|trim when|folks do|
 A,,2!f! A,,2 D,D,D,D, | D,2 B,,2 C,2 D,2 | G,,4 z2 E,2 | =F,2 G,2 C,2 C,2 | C,C,C,C, D,2 z2 | %30
w: love, By good Sir John I|swear now I will|prove, now|I will prove, by|good Sir John I swear|
 z2 B,,2 C,2 D,2 | G,,6!mp! G,2 | D,D,D,E, =F,2 F,2 | C,2 C,2 E,2 E,2 | %34
w: now I will|prove. For|Mo- ther, I will sure have|one, have one, have|
"^cresc." B,,2 B,,2 D,2!ff! G,,2 | C,3 C, C,2 G,,2 | D,4 D,4 | G,,8 | z4 z2!f! G,A, || %39
w: one, have one, In|spite of her that|will have|none.|To the|
 (3:2:2G,4 G,2 (3G,2 G,2 D,2 | (3:2:2G,4 z2 z4 | (3z2 z2 G,(3:2:1G, z4/3 (3:2:2G,2 D,2 | %42
w: town there- fore will I|gad,|will I will I|
 (3G,2 G,,2 G,,2 (3G,,2 G,,2 D,2 | (3:2:2G,,4!mp! G,,2 (3:2:1C,3 (3:2:2B,, A,,2 | %44
w: gad, will I gad, will I|gad, To get me a|
 (3:2:2E,4 C,2 (3:2:2D,2 E,4 | (3:2:2A,,4!ff! A,,2 (3:2:1B,,3 (3:2:2A,, G,,2 | %46
w: hus- band good or|bad, to get me a|
 (3:2:2D,4 B,,2 (3:2:2C,2 D,4 || G,,4 z4 |!f! G,G,G,G, G,2 C,2 | D,4 G,,G,F,G, | C,2 D,2 =F,2 G,2 | %51
w: hus- band good or|bad.|Mo- ther, I will have a|hus- band, And I will|have him out of|
 D,8 | D,D,D,D, A,,2 G,,2 | C,4 C,4 |[M:2/2] =F,2 G,2 D,4- | D,4 D,4 | D,8 | D,8 | !fermata!G,,8 |] %59
w: hand.|Mo- ther, I will sure have|one, In|spite of her,|* that|will|have|none.|

